assets/images/icons/back.svg

<svg xmlns="http://www.w3.org/2000/svg">
  <path id="icon" d="M10 5H4V4H3v1H2v1h1v1h1v1h1v1h1V8H5V7H4V6h6zM6 2H5v1h1zM5 3H4v1h1z" vector-effect="non-scaling-stroke"/>
</svg>

<?xml version="1.0" encoding="UTF-8" standalone="no"?>
<?xml-stylesheet type="text/css" href="/assets/styles/all-stylesheets.css"?>
<!DOCTYPE svg PUBLIC "-//W3C//DTD SVG 1.1//EN" "http://www.w3.org/Graphics/SVG/1.1/DTD/svg11.dtd">
<svg xmlns="http://www.w3.org/2000/svg" xmlns:xl="http://www.w3.org/1999/xlink" version="1.1" viewBox="0 0 11 11" width="11pt" height="11pt" xmlns:dc="http://purl.org/dc/elements/1.1/">
  <metadata> Produced by OmniGraffle 7.5 
    <dc:date>2018-01-14 22:39:44 +0000</dc:date>
  </metadata>
  <defs/>
  <symbol id="icon" viewBox="0 0 11 11">
    <rect fill="white" width="11" height="11"/>
    <g>
      <title>Layer 1</title>
      <path d="M 10 5 L 4 5 L 4 4 L 3 4 L 3 5 L 2 5 L 2 6 L 3 6 L 3 7 L 4 7 L 4 8 L 5 8 L 5 9 L 6 9 L 6 8 L 5 8 L 5 7 L 4 7 L 4 6 L 10 6 Z M 6 2 L 5 2 L 5 3 L 6 3 Z M 5 3 L 4 3 L 4 4 L 5 4 Z"/>
    </g>
  </symbol>
</svg>
